X: 116001
Q: "Strathspey."
M: C
L: 1/16
K: A
(ucB) |\
vAuE3 vE3uC E4- E2(cB) | AF3 F3E F4- F3A |\
vE3uF AA3 vB3vcue3uf | veuc3 vB3uA F4- F2(cB) |\
E3F AA3 B3ce3f | fedc dcBA F4- F2 |]\
(ucd) |\
ve3uf ec3 e4-e3a | f3g fgaf f4- f3a |\
ec3 B3A A3Bc3B |
e3f fedc e4- e2(ag) | fefg fgag f4- f2(ag) |\
fedc dcBA A3Bc2A2 | Bcdf ecBA F4- F2 |]


